hw8Responsive/images/logos/contentlogo/bluebox/baseline-style-24px.svg

<svg width="40" height="40" viewBox="0 0 40 40" fill="none" xmlns="http://www.w3.org/2000/svg">
<path d="M4.21642 32.7499L6.44976 33.6833V18.6333L2.39976 28.3999C1.71643 30.0999 2.53309 32.0499 4.21642 32.7499ZM36.7164 26.5833L28.4498 6.63325C27.9331 5.38325 26.7164 4.61659 25.4331 4.58325C24.9998 4.58325 24.5498 4.64992 24.1164 4.83325L11.8331 9.91658C10.5831 10.4333 9.81642 11.6333 9.78309 12.9166C9.76642 13.3666 9.84976 13.8166 10.0331 14.2499L18.2998 34.1999C18.8164 35.4666 20.0498 36.2333 21.3498 36.2499C21.7831 36.2499 22.2164 36.1666 22.6331 35.9999L34.8998 30.9166C36.5998 30.2166 37.4164 28.2666 36.7164 26.5833ZM13.1331 14.5833C12.2164 14.5833 11.4664 13.8333 11.4664 12.9166C11.4664 11.9999 12.2164 11.2499 13.1331 11.2499C14.0498 11.2499 14.7998 11.9999 14.7998 12.9166C14.7998 13.8333 14.0498 14.5833 13.1331 14.5833ZM9.79976 32.9166C9.79976 34.7499 11.2998 36.2499 13.1331 36.2499H15.5498L9.79976 22.3499V32.9166Z" fill="white"/>
</svg>

<svg width="40" height="40" fill="none" xmlns="http://www.w3.org/2000/svg"><path d="M4.216 32.75l2.234.933v-15.05L2.4 28.4c-.684 1.7.133 3.65 1.816 4.35zm32.5-6.167L28.45 6.633c-.517-1.25-1.734-2.016-3.017-2.05-.433 0-.883.067-1.317.25L11.833 9.917a3.332 3.332 0 00-2.05 3c-.017.45.067.9.25 1.333L18.3 34.2c.516 1.267 1.75 2.033 3.05 2.05.433 0 .866-.083 1.283-.25L34.9 30.917c1.7-.7 2.516-2.65 1.816-4.334zm-23.583-12c-.917 0-1.667-.75-1.667-1.666 0-.917.75-1.667 1.667-1.667S14.8 12 14.8 12.917c0 .916-.75 1.666-1.667 1.666zM9.8 32.917c0 1.833 1.5 3.333 3.333 3.333h2.417L9.8 22.35v10.567z" fill="#fff"/></svg>
